X:56
T:We are gayly yet
M:2/4
L:1/8
B:Thompson's Compleat Collection of 200 Favourite Country Dances, vol. 3 (London, 1773)
Z:Transcribed and edited by Flynn Titford-Mock, 2007
Z:abc's:AK/Fiddler's Companion
K:D
d2f2 | ec A2 | BcdB | "tr"A4 | GEeE | FDfD | [B,B]dcB | {B}"tr"A4 :|
|: Ac ed | cecA | "tr"B3 c | "tr"d4 | GB GE | FA d2 | BGF"tr"E | D4 :|

